static/emoji/rss.svg

<svg id="emoji" viewBox="0 0 72 72" xmlns="http://www.w3.org/2000/svg">
  <g id="color">
    <path fill="#F1B31C" d="M59.0349 60H12.9649C12.7092 59.9992 12.4642 59.8973 12.2834 59.7164C12.1026 59.5356 12.0007 59.2906 12 59.0349V12.9649C12.0008 12.7092 12.1027 12.4642 12.2836 12.2834C12.4644 12.1026 12.7094 12.0007 12.9651 12H59.0351C59.2908 12.0008 59.5358 12.1027 59.7166 12.2836C59.8974 12.4644 59.9993 12.7094 60 12.9651V59.0351C59.9992 59.2908 59.8973 59.5358 59.7164 59.7166C59.5356 59.8974 59.2906 59.9993 59.0349 60Z"/>
    <circle cx="24.5" cy="47.5" r="4.5" fill="#ffffff"/>
    <path fill="#ffffff" fill-rule="evenodd" d="M42 52C42 39.8497 32.1503 30 20 30V37C28.2843 37 35 43.7157 35 52H42Z" clip-rule="evenodd"/>
    <path fill="#ffffff" fill-rule="evenodd" d="M52 52C52 34.3269 37.6731 20 20 20V27C33.8071 27 45 38.1929 45 52H52Z" clip-rule="evenodd"/>
  </g>
  <g id="line">
    <path fill="none" stroke="#000000" stroke-linejoin="round" stroke-miterlimit="10" stroke-width="2" d="M59.0349 60H12.9649C12.7092 59.9992 12.4642 59.8973 12.2834 59.7164C12.1026 59.5356 12.0007 59.2906 12 59.0349V12.9649C12.0008 12.7092 12.1027 12.4642 12.2836 12.2834C12.4644 12.1026 12.7094 12.0007 12.9651 12H59.0351C59.2908 12.0008 59.5358 12.1027 59.7166 12.2836C59.8974 12.4644 59.9993 12.7094 60 12.9651V59.0351C59.9992 59.2908 59.8973 59.5358 59.7164 59.7166C59.5356 59.8974 59.2906 59.9993 59.0349 60V60Z"/>
    <path fill="none" stroke="#000000" stroke-linecap="round" stroke-linejoin="round" stroke-width="2" d="M29 47.5C29 49.9853 26.9853 52 24.5 52C22.0147 52 20 49.9853 20 47.5C20 45.0147 22.0147 43 24.5 43C26.9853 43 29 45.0147 29 47.5Z"/>
    <path fill="none" fill-rule="evenodd" stroke="#000" stroke-linejoin="round" stroke-width="2" d="M41 52C41 40.402 31.598 31 20 31V37C28.2843 37 35 43.7157 35 52H41Z" clip-rule="evenodd"/>
    <path fill="none" fill-rule="evenodd" stroke="#000" stroke-linejoin="round" stroke-width="2" d="M52 52C52 34.3269 37.6731 20 20 20V26.0012C34.1062 26.1354 45.5 37.6121 45.5 51.75C45.5 51.8334 45.4996 51.9168 45.4988 52H52Z" clip-rule="evenodd"/>
  </g>
</svg>

<svg viewBox="0 0 72 72" xmlns="http://www.w3.org/2000/svg"><path fill="#F1B31C" d="M59.035 60h-46.07a.968.968 0 01-.965-.965v-46.07a.968.968 0 01.965-.965h46.07a.968.968 0 01.965.965v46.07a.968.968 0 01-.965.965z"/><circle cx="24.5" cy="47.5" r="4.5" fill="#fff"/><path fill="#fff" fill-rule="evenodd" d="M42 52c0-12.15-9.85-22-22-22v7c8.284 0 15 6.716 15 15h7z" clip-rule="evenodd"/><path fill="#fff" fill-rule="evenodd" d="M52 52c0-17.673-14.327-32-32-32v7c13.807 0 25 11.193 25 25h7z" clip-rule="evenodd"/><g fill="none" stroke="#000" stroke-linejoin="round" stroke-width="2"><path stroke-miterlimit="10" d="M59.035 60h-46.07a.968.968 0 01-.965-.965v-46.07a.968.968 0 01.965-.965h46.07a.968.968 0 01.965.965v46.07a.968.968 0 01-.965.965v0z"/><path stroke-linecap="round" d="M29 47.5a4.5 4.5 0 11-9 0 4.5 4.5 0 019 0z"/><path d="M41 52c0-11.598-9.402-21-21-21v6c8.284 0 15 6.716 15 15h6z" clip-rule="evenodd"/><path d="M52 52c0-17.673-14.327-32-32-32v6.001c14.106.134 25.5 11.611 25.5 25.749l-.001.25H52z" clip-rule="evenodd"/></g></svg>
